icons/_assets/heading_4.svg

<svg width="100" height="100" xmlns="http://www.w3.org/2000/svg"><path d="M81.8112284,47.487 L81.6812194,47.505 L69.8214015,63.739 L81.8112284,62.006 L81.8112284,47.487 Z M81.8112284,66.383 L62.2808814,69.235 L62.2808814,67.004 L86.4775502,34.218 L87.6416305,34.06 L87.6416305,61.163 L93,60.388 L93,64.75 L87.6416305,65.532 L87.6416305,75.599 L81.8112284,76.469 L81.8112284,66.383 Z M57.7415684,16 L57.7415684,78.062 L45.0556935,79.517 L45.0556935,57.245 L18.6848748,60.272 L18.6848748,82.545 L6,84 L6,21.939 L18.6848748,20.484 L18.6848748,48.862 L45.0556935,45.838 L45.0556935,17.456 L57.7415684,16 Z" fill="#134B45" fill-rule="evenodd"/></svg>

<svg width="100" height="100" xmlns="http://www.w3.org/2000/svg"><path d="m81.811 47.487-.13.018-11.86 16.234 11.99-1.733V47.487zm0 18.896-19.53 2.852v-2.231l24.197-32.786 1.164-.158v27.103L93 60.388v4.362l-5.358.782v10.067l-5.83.87V66.383zM57.741 16v62.062l-12.685 1.455V57.245l-26.371 3.027v22.273L6 84V21.939l12.685-1.455v28.378l26.37-3.024V17.456L57.743 16z" fill="#134B45" fill-rule="evenodd"/></svg>
